X:1
T:Fuggiro tant' Amore
T:Luca Marenzio
T:Sources : Canzonette a la Romana a tre voce---Antwerp---P.Phalesius Jr---1607. Il primo libro delle Villanelle a tre voci---Venetia---G.Vincenzi---1586. Editor : André Vierendeels (04/02/17).
T:Notes : Original clefs : C1, C2, F4
T:Fuggiro tant' Amore
T:©
T:©
C:Luca Marenzio
Z:©
%%score [ 1 2 3 ]
L:1/8
Q:1/4=121
M:4/4
K:C
V:1 treble nm="Soprano 1" snm="S 1"
V:2 treble nm="Soprano 2" snm="S 2"
V:3 bass nm="Bass" snm="B"
V:1
"^1)" c3 d e4 | E3 F G4 | z2 c3 d e2 | d2 c2 B4 | B4 z2 c2 | A2 B2 c2 e2 | d4 c4 :: z2 G2 ABcA | %8
w: Fug- gi- ro,|fug- gi- ro,|fug- gi- ro|tant' A- mo-|re, che|sce- me- ra l'ar-|do- re,|le fiam- * * *|
w: Fug- gi- ro,|fug- gi- ro,|fug- gi- ro|tan- to, tan-|to, che|ces- se- ra'il mio|pian- to,|il no- * * *|
 BcdB c2 d2 | e2 c2 BAGA | Bc d4 ^c2 | d8 | z2 B2 B3 G | A2 B2 c4 | G8 | A8 | c8 | B8 | A8 :| %19
w: * * * * * m'e|le ca- te- * * *||ne,|che ten- go-|no quest' al-|m'in|tan-|to|pe-|ne.|
w: * * * * * do,|l'ar- co, e'l _ _ _|stra- * * *|le,|che tien quest'|alm' in do-|glia|aspr'e|mor-|ta-|le.|
V:2
"^2)""^1)" z2 E3 F G2- | G2 E3 F G2 | C3 D E4 | B2 A2 ^G4 | ^G4 z2 A2 | E2 G2 A2 c2- | c2 B2 c4 :: %7
w: Fug- gi- ro,|_ fug- gi- ri,|fug- gi- ro|tant' A- mo-|re, che|sce- me- ra l'ar-|* do- re,|
w: Fug- gi- ro,|_ fug- gi- ro,|fug- gi- ro'il|for- te lac-|cio, et|u- sci- ro d'im-|* pac- cio,|
 z2 C2 CDEF | GABG A2 B2 | c2 A2 G4- | G8 | ^F8 | z2 G2 D3 E | C2 D2 E4- | E4 G4- | G4 ^F4 | %16
w: le fiam- * * *|* * * * * m'e|le ca- te-||ne,|che ten- go-|no quest' al-|* m'in|_ tan-|
w: ne di _ _ _|_ _ _ _ _ fug-|gir mi pen-||to,|e sce- mar|quest' ar- dor|_ che|_ nel|
 ^G4 A4- | A4 ^G4 | A8 :| %19
w: to pe-||ne.|
w: cor sen-||to.|
V:3
"^3)""^1)""^4)" A,3 B, C4 | C,3 D, E,4 | A,,3 B,, C,4 | G,,2 A,,2 E,4 | E,4 A,2 A,2- | %5
w: Fug- gi- ro,|fug- gi- ro,|fug- gi- ro|tant' A- mo-|re, che sce-|
w: Fug- gi- o,|fug- gi- o,|fug- gi- o|dun- que'A- mo-|re, sciol- to|
 A,2 G,2 F,2 E,2 | G,4 C,4 :: C4 A,4 | G,4 F,2 D,2 | C,3 D, E,3 F, | G,3 F, E,4 | D,8 | %12
w: * me- ra l'ar-|do- re,|le fiam-|m'e le ca-|te- * * *||ne,|
w: _ dal fie- ro'ar-|do- re,|e di-|ro nel fug-|gi- * * *||re,|
 G,,4 G,3 E, | F,2 D,2 C,4- | C,4 B,,4 | ^C,4 D,4 | E,8- | E,8 | A,,8 :| %19
w: che ten- go-|no quest' al-|* m'in|tan- te|pe-||ne.|
w: Don- na tu|sei ca- gion|_ del|mio mar-|ti-||re.|

